src/images/single-assets/yCRV.svg

<svg width="32" height="32" viewBox="0 0 32 32" fill="none" xmlns="http://www.w3.org/2000/svg">
<circle cx="16" cy="16" r="16" fill="#0158FF"/>
<circle cx="16" cy="16" r="14" fill="#94FE63"/>
<circle cx="16" cy="16" r="12" fill="#F4F605"/>
<circle cx="16" cy="16" r="10" fill="#FB9F01"/>
<circle cx="16" cy="16" r="8" fill="#FF2001"/>
<circle cx="16" cy="16" r="6" fill="#FF2001"/>
<circle cx="16" cy="16" r="4" fill="#FF2001"/>
<path fill-rule="evenodd" clip-rule="evenodd" d="M12.2927 10.6996L11.5933 11.3993L13.2999 13.1062L15.0065 14.8131V16.402V17.9909H16.001H16.9955V16.402V14.8131L18.698 13.1104L20.4005 11.4076L19.6967 10.7043L18.9929 10.001L17.5062 11.484C16.6885 12.2997 16.0113 12.9671 16.0014 12.9671C15.9915 12.9671 15.3134 12.2995 14.4945 11.4835C13.6756 10.6676 13.0026 10 12.9988 10C12.9951 10 12.6773 10.3148 12.2927 10.6996ZM11.5042 14.8004C11.2816 15.2705 11.1527 15.6755 11.0697 16.1656C10.8323 17.5669 11.2075 19.01 12.1008 20.1319C12.2482 20.317 12.6819 20.7506 12.8658 20.8967C13.6933 21.554 14.6354 21.9182 15.6921 21.9892C16.3242 22.0317 16.9562 21.9488 17.577 21.742C19.3715 21.1443 20.667 19.6015 20.9472 17.7287C21.055 17.008 20.9968 16.2371 20.7809 15.5262C20.6951 15.2435 20.5212 14.82 20.4303 14.6723L20.3955 14.6158L19.6389 15.3719C19.0285 15.9818 18.8841 16.1346 18.8918 16.1617C18.9542 16.3804 18.9874 16.6077 18.9962 16.8782C19.0135 17.4026 18.9305 17.8264 18.7241 18.2691C18.3228 19.1296 17.5398 19.7437 16.5825 19.9489C16.4163 19.9845 16.3552 19.9885 15.9926 19.988C15.6367 19.9875 15.5668 19.9828 15.411 19.9492C14.4619 19.744 13.7155 19.1634 13.2944 18.3028C13.104 17.9138 13.0179 17.5538 13.0049 17.0932C12.9955 16.7602 13.0139 16.5588 13.0776 16.2967L13.1185 16.1281L12.3644 15.3737C11.9495 14.9587 11.6056 14.6192 11.6001 14.6192C11.5945 14.6192 11.5514 14.7007 11.5042 14.8004Z" fill="white"/>
</svg>

<svg xmlns="http://www.w3.org/2000/svg" width="32" height="32" fill="none"><circle cx="16" cy="16" r="16" fill="#0158FF"/><circle cx="16" cy="16" r="14" fill="#94FE63"/><circle cx="16" cy="16" r="12" fill="#F4F605"/><circle cx="16" cy="16" r="10" fill="#FB9F01"/><circle cx="16" cy="16" r="8" fill="#FF2001"/><circle cx="16" cy="16" r="6" fill="#FF2001"/><circle cx="16" cy="16" r="4" fill="#FF2001"/><path fill="#fff" fill-rule="evenodd" d="m12.293 10.7-.7.7 1.707 1.706 1.707 1.707v3.178h1.988v-3.178l1.703-1.703 1.703-1.702-.704-.704-.704-.703-1.487 1.483a89 89 0 0 1-1.505 1.483c-.01 0-.688-.668-1.507-1.484A233 233 0 0 0 13 10c-.004 0-.322.315-.706.7m-.789 4.1a5.025 5.025 0 0 0 .597 5.332c.147.185.58.619.765.765a5 5 0 0 0 2.826 1.092 4.9 4.9 0 0 0 1.885-.247 5 5 0 0 0 3.37-4.013c.108-.721.05-1.492-.166-2.203-.086-.283-.26-.706-.35-.854l-.036-.056-.756.756c-.61.61-.755.763-.747.79.062.218.095.446.104.716a2.9 2.9 0 0 1-.272 1.391c-.401.86-1.184 1.475-2.142 1.68-.166.035-.227.04-.59.039-.355 0-.425-.005-.581-.039a3 3 0 0 1-2.117-1.646 2.76 2.76 0 0 1-.29-1.21c-.008-.333.01-.534.074-.796l.04-.169-.754-.754a42 42 0 0 0-.764-.755c-.005 0-.049.082-.096.181" clip-rule="evenodd"/></svg>
